src/pos-icons/sort-variant.svg

<svg height="24" viewBox="0 0 24 24" width="24" xmlns="http://www.w3.org/2000/svg"><path d="m3 13h12v-2h-12m0-5v2h18v-2m-18 12h6v-2h-6z"/></svg>

<?xml version="1.0" encoding="UTF-8"?><!DOCTYPE svg PUBLIC "-//W3C//DTD SVG 1.1//EN" "http://www.w3.org/Graphics/SVG/1.1/DTD/svg11.dtd"><svg xmlns="http://www.w3.org/2000/svg" xmlns:xlink="http://www.w3.org/1999/xlink" version="1.1" id="mdi-sort-variant" width="24" height="24" viewBox="0 0 24 24"><path d="M3,13H15V11H3M3,6V8H21V6M3,18H9V16H3V18Z" /></svg>
